X:1
T:Evit Gabriel
C:Daniel Thonon
R:reel
Z:transcribed to ABC by Debby Knight
M:C|
L:1/8
K:Em
|: "Em"EFGF EFGF | EFGA B2AB |[1,3 "Am"cBAG F2GA | "Em"BAGB "B7"F4 \
                            :|[2,4 "Am"cBAG "B7"FBGF | "Em"EG"B7"FD "Em"E4 :|
|: "Am"eAAe "D"dcBc | "G"dGGd "C"cBAG | "D7"FGAc "B7/D#"BAGF |[1,2 "Em"GFGA "E7"B2cd \
                                                            :|[2,4 "Em"GA"B7"FG "Em"E4 :|
